X:1
T:Titles from Pirates of the Caribbean
T:Hoist the Colors - The Medallion Calls - He's a Pirate
T:Arranged by Justin Ritt
%%score { 1 | 2 } { 3 | 4 }
L:1/8
Q:1/4=80
M:3/4
K:Eb
V:1 bass nm="Euphonium" snm="Eu."
V:2 bass 
V:3 bass nm="F Tuba" snm="F Tu."
V:4 bass 
V:1
"^\"Hoist The Colors\" - Slow + Mysterious"!p! (C,2 | G,2-) G,G, G,2 | G,4 G,G, | A,2- A,G, G,2 | %4
 C,4 (C,2 | C4) C2 | C2 D2 C2 | =B,6- | !breath!B,4 (=A,2 | D4) ^C2 | D4 E2 | D4 =B,2 | (G,6 | %13
 (D2) D)E D2 | G,4 B,2 | C6- | C4 z2 ||"^A"[Q:1/4=120]"^Vivo" z6 | z6 | z6 | z6 | z6 | z6 | z6 | %24
 z6 | z6 | z6 | z6 | z6 | z6 | z6 | z6 | z6 | z6 | z6 | z6 | z6 | z6 | z6 | z6 | z6 || %41
[K:C][M:2/4]"^\"The Medallion Calls\" - Romantic"[Q:1/4=90]"^Andante" z4 |[M:3/4]!mp! G,6- | %43
 G,2 E,2 G,2 | A,6- | A,2 z4 |!<(! C6!<)! | D6 ||"^B"[Q:1/4=132]"^Allegro" A,6- |!>(! A,6!>)! | %50
 z6 | z6 | z2 A,2 B,2 | C3 D E2 | D2 C2 B,2 | C2 D2 E2 | D4 CD | E3 D C2 | B,2 C2 B,2 | %59
 A,2 z B, G,2 |!f! !>!A,/!>!A,/!>!A, z G, E,2 | !>!E,/!>!E,/!>!E, z E, A,B, | C3 B, C2 | D2 C2 D2 | %64
 E3 D C2 | A,4 A,B, | C2 D2 E2 | F2 A,3 D | C3 D B,2 | A,3 E, CB, |!>(! A,6!>)! ||!mp! E,6 | %72
"^C" ^G,6 | E,6 | ^G,4 A,B, | C3 B, A,2 |!mf! (G,2 C2) E,2 | (D,3 C,) D,2 |!<(! E,6!<)! | %79
!f! !>!A,>G, A,B, C2 | !>!A,3/2 z/ z2 z !>!E, | !>!A,>G, A,B, CD | E2 !^!B,2 !^!G,2 | %83
 !>!A,>G, A,B, C2 | !>!A,>C B,G, A,!>!E, | !>!A,>G, A,B, CD |[M:4/4] E2 ^F,2 ^G,2 A,B, || %87
[M:3/4]"^D"!mf! C3 D E2 | D2 C2 B,2 | C2 D2 E2 | D4!<(! CD!<)! | %91
[M:4/4]!f! !>!.E2 !>!.D2 !>!.A,2 !>!.^G,2 | z2!p! .A,2 z2!<(! .A,2!<)! | z2 .A,2 z2 .B,2 | %94
 z2 .A,2 z2 .A,2 | z4 z2!mf! .^G,2 | z4 z2!f! .A,2 |] %97
[M:6/8][Q:1/4=184]"^\"He's a Pirate!\" - Presto"[Q:1/4=184]"^Presto" z6 | z6 | z6 | z6 | z6 | %102
 z3 z!mf! E,G, |:"^E" A,2 A,- A,A,B, | C2 C- CCD | B,2 B,- B,A,G, | (G, A,2-) A,E,G, | %107
 A,2 A,- A,A,B, | C2 C- CCD | B,2 B,- B,(A,G,) | A,3 z E,G, | A,2 A,- A,A,C | D2 D- DDE | %113
 F2 F- FED | E A,2- A,A,B, | C2 C2 D2 | E A,2- A,A,C |1 %117
[M:12/8] B,2 B,- B,CA, B,3 z!p![Q:1/4=200]"^Faster!" E,G, :|2[M:6/8] B,2!<(! B,- B,A,^G,!<)! || %119
[M:3/4]!f! A,2 A,2 B,2 | C2 CC D2 ||[M:6/8]"^F" E C2 z CA, | E,3 z z2 | F3 z DA, | F,2 z4 | %125
 B, B,2 A,3 | C3- CC!>(!D!>)! ||"^G"!p! E2 E2 E2 | (F E2) z z2 | D2 D2 D2 | (D E2) z z2 | %131
 E2 E2 EE | (F E2) z z2 | D2 C2 B,2 | A,3 z A,B, ||"^H" C3- CDE | D2 C2 B,2 | C2 D2 E2 | D3- DCD | %139
 E3- EDC | B,2 C2 B,2 | A,3- A,B,G, | A,3 z A,B, |"^I" C4 B,C |!<(! D2 B,2 D2!<)! | E2 D2 C2 | %146
 A,4 A,B, | C2 D2 E2 | F2 A,2 D2 | C4 DB, | A,4 B,^G, |"^J""^FASTER!!!" !>!E3 z z2 | !>!F3 z z2 | %153
 E2 E2 E2 | (ED) z4 | !>!D3 z z2 | !>!C3 z z2 | B,2 C2 B,2 | !>!A,3 A,B,C | !>!E3 A,B,C | %160
 !>!F3 A,B,C | E2 E2 G2 | (ED) z4 | !>!D3 z z2 | !>!C3 z z2 | B,2 C2 B,2 | !>!A,3 z z2 | !>!A,6- | %168
 A,6 | z6 | z6 | z6 | z6 | z6 | z6 | z6 | z6 | z6 | z6 |] %179
V:2
 z2 | z6 | z6 | z6 | z6 | z6 | z6 | z6 | z6 | z6 | z6 | z6 | z6 | z6 | z6 | z6 | z6 || z6 | z6 | %19
 z6 | z6 | z6 | z6 | z6 | z6 | z6 | z6 | z6 | G,G,- G,4 | !>!.C4 C2 | (E2 D2) C2 | D6- | D6 | %33
 !>!.C6 | !>!.G,6 | !>!.C4 C2 | G,G,- G,4 | !^!D2 !^!E2 !^!D2 | G,4 !>!=B,2 | !>!C6- | %40
 !fermata!C6 ||[K:C][M:2/4] z4 |[M:3/4]!mp! E,6- | E,2 z4 | E,6- | E,2 (A,2 B,2) |!<(! A,6!<)! | %47
 A,6 || A,6- |!>(! A,6!>)! | E,E,/E,/ E,E, E,E, | E,E,/E,/ E,E, E,E, | E,2 E,2 G,2 | A,3 B, C2 | %54
 B,2 G,2 G,2 | E,2 G,2 C2 | B,4 A,B, | C3 B, A,2 | ^G,2 A,2 G,2 | E,2 z E, D,2 | %60
!f! !>!E,/!>!E,/!>!E, z4 | !>!E,/!>!E,/!>!E, z E, A,G, | A,3 A, A,2 | B,2 A,2 B,2 | C3 B, G,2 | %65
 F,4 F,G, | A,2 B,2 C2 | D2 F,3 B, | A,3 B, G,2 | E,4 E,2 |!>(! E,6!>)! ||!mp! A,3 E, A,2 | %72
 B,2 E,2 B,2 | C3 B, A,2 | E,6 | C,6 | C,6 | D,6 |!<(! B,,6!<)! |!f! !>!E,2 z2 z !>!E, | %80
 !>!E,2 z2 z !>!E, | !>!E,2 z4 | z !^!E, z !^!E, z !^!E, | !>!A,>G, A,B, CA, | %84
 !>!A,>C B,G, A,!>!E, | !>!A,>G, A,B, G,A, |[M:4/4] B,2 E,2 E,2 A,B, ||[M:3/4]!mf! A,3 B, C2 | %88
 B,2 G,2 D,2 | E,2 G,2 C2 | B,4!<(! A,B,!<)! |[M:4/4]!f! !>!.C2 !>!.A,2 .E,2 .E,2 | %92
 z2!p! .E,2 z2!<(! .E,2!<)! | z2 .E,2 z2 .^G,2 | z2 .E,2 z2 .E,2 | z4 z2 .E,2 | z4 z2!f! .E,2 |] %97
[M:6/8] z6 | z6 | z6 | z6 | A,6- | A,3 z E,G, |: E,2 E,- E,E,G, | A,2 A,- A,A,A, | G,2 G,- G,E,D, | %106
 (E, E,2-) E,E,G, | F,2 F,- F,F,F, | G,2 G,- G,G,G, | G,2 G,- G,(E,G,) | E,3 z E,G, | %111
 E,2 E,- E,E,E, | A,2 A,- A,A,A, | D2 D- DCB, | C A,2- A,A,B, | A,2 A,2 A,2 | C A,2- A,A,C |1 %117
[M:12/8] ^G,2 G,- G,A,^F, G,3 z!p! E,=G, :|2[M:6/8] ^G,2 G,- G,A,G, ||[M:3/4] E,2 E,2 G,2 | %120
 A,2 CC A,2 ||[M:6/8] A, C2 z E,E, | E,3 z z2 | D3 z F,F, | F,3 z z2 | ^G, G,2 D,3 | %126
 ^G,3- G,C!>(!D!>)! ||!p! C2 C2 C2 | C3 z z2 | B,2 B,2 B,2 | (B, C2) z z2 | C2 C2 CC | C3 z z2 | %133
 B,2 ^G,2 E,2 | E,3 z A,B, || A,3- A,DE | G,2 G,2 G,2 | G,2 G,2 G,2 | B,3- B,CD | C3- CDC | %140
 ^G,2 G,2 G,2 | E,3- E,B,G, | E,3 z A,B, | A,4 B,A, | G,2 G,2 G,2 | C2 G,2 G,2 | F,4 A,B, | %147
 A,2 A,2 A,2 | A,2 A,2 D2 | G,4 B,A, | A,4 B,^G, | !>!C3 z z2 | !>!D3 z z2 | C2 C2 C2 | (B,G,) z4 | %155
 !>!A,3 z z2 | !>!A,3 z z2 | E,2 E,2 E,2 | !>!E,3 A,B,C | !>!C3 A,B,C | !>!C3 A,B,C | C2 C2 C2 | %162
 (B,G,) z4 | !>!A,3 z z2 | !>!A,3 z z2 | E,2 E,2 E,2 | !>!E,3 z z2 | !>!E,6- | E,6 | z6 | z6 | z6 | %172
 z6 | z6 | z6 | z6 | z6 | z6 | z6 |] %179
V:3
 z2 | z6 | z6 | z6 | z6 | z6 | z6 | z6 | z6 | z6 | z6 | z6 | z6 | z6 | z6 | z6 | z6 ||!p! !>!.C,6 | %18
 !>!.G,,6 | !>!.C,6 | !>!.G,,6 | !>!.C,4 C,2 | (E,2 D,2) C,2 |!mp! D,6- | (D,6 | !>!.C,6) | %26
 !>!.G,,6 | !>!.C,4 C,2 | G,,G,,- G,,4 | !>!.C,4 C,2 | (E,2 D,2) C,2 | D,6- | D,6 |!f! !>!.C,6 | %34
 !>!.G,,6 | !>!.C,4 C,2 | G,,G,,- G,,4 | !^!D,2 !^!E,2 !^!D,2 | G,,4 !>!=B,,2 | !>!C,6- | %40
 !fermata!C,6 ||[K:C][M:2/4]!mp! (A,,2 D,2) |[M:3/4] B,,6- | B,,2 z4 | C,6- | C,2 z4 | %46
!<(! C,6!<)! | D,6 || E,E,/E,/ E,E, E,E, |!>(! E,E,/E,/ E,E, E,E,!>)! | %50
!mp! A,,A,,/A,,/ A,,A,, A,,A,, | A,,A,,/A,,/ A,,A,, A,,A,, | A,,2 E,2 G,2 | E,3 E, E,2 | %54
 G,2 E,2 D,2 | C,2 D,2 G,2 | G,4 C,D, | G,3 G, F,2 | E,2 E,2 E,2 | C,2 z C, B,,2 | %60
!f! !>!A,,/!>!A,,/!>!A,, z4 | !>!A,,/!>!A,,/!>!A,, z C, E,B,, | E,3 E, E,2 | G,2 E,2 G,2 | %64
 G,3 G, E,2 | C,4 A,,B,, | F,2 G,2 A,2 | F,2 C,3 D, | C,3 D, E,2 | C,4 C,2 |!>(! C,6!>)! || %71
!mp! C,6 | B,,6 | C,6 | B,,6 | A,,6 | G,,6 | A,,6 |!<(! ^G,,6!<)! |!f! !>!C,2 z2 z !>!C, | %80
 !>!C,2 z2 z !>!C, | !>!C,2 z4 | z !^!C, z !^!C, z !^!C, | !>!E,>G,, A,,B,, C,E, | %84
 !>!E,>C, B,,G,, A,,!>!E,, | !>!E,>G,, A,,B,, C,D, |[M:4/4] ^G,2 B,,2 B,,4 || %87
[M:3/4] E,E,/E,/ E,E, E,E, | D,D,/D,/ D,D, D,D, | G,,G,,/G,,/ D,D,!<(! G,G,!<)! | %90
 D,4!<(! D,D,!<)! |[M:4/4]!f! !>!.G,2 !>!.F,2 .C,2 .B,,2 | z2!p! .C,2 z2!<(! .C,2!<)! | %93
 z2 .D,2 z2 .E,2 | z2 .C,2 z2 .C,2 | z4 z2!mf!!mf! .B,,2 | z4 z2!f! .C,2 |][M:6/8] z6 | z6 | z6 | %100
 z6 | z6 | z3 z C,E, |: C,2 C,- C,C,E, | F,2 F,- F,F,D, | E,2 E,- E,B,,B,, | (C, C,2-) C,C,E, | %107
 C,2 C,- C,A,,B,, | E,2 E,- E,E,E, | D,2 D,- D,(C,C,) | C,3 z C,E, | C,2 C,- C,C,C, | %112
 F,2 F,- F,D,E, | A,2 A,- A,E,D, | A, E,2- E,E,E, | F,2 F,2 F,2 | F, E,2- E,E,C, |1 %117
[M:12/8] E,2 E,- E,C,A,, E,3 z C,E, :|2[M:6/8] E,2 E,- E,E,E, ||[M:3/4] E,2 E,2 E,2 | %120
 C,2 G,G, F,2 ||[M:6/8] E, A,2 z E,E, | E,3 z z2 | A,3 z D,D, | D,3 z z2 | B,, B,,2 A,,3 | %126
 E,3- E,C,!>(!D,!>)! ||!p! A,2 A,2 A,2 | A,3 z z2 | G,2 G,2 G,2 | (G, G,2) z z2 | A,2 A,2- A,A, | %132
 A,3 z z2 | ^G,2 E,2 B,,2 | C,3 z E,E, || E,3- E,D,E, | D,2 D,2 D,2 | D,2 D,2 D,2 | G,3- G,C,D, | %139
 G,3- G,D,C, | E,2 E,2 E,2 | C,3- C,E,E, | C,3 z E,E, | E,4 B,,C, | D,2 D,2 D,2 | E,2 E,2 E,2 | %146
 C,4 F,F, | E,2 E,2 E,2 | F,2 F,2 F,2 | E,4 E,E, | E,4 E,E, | !>!A,3 z z2 | !>!A,3 z z2 | %153
 G,2 G,2 G,2 | (G,D,) z4 | !>!F,3 z z2 | !>!E,3 z z2 | E,2 E,2 E,2 | !>!C,3 A,E,A, | %159
 !>!A,3 A,E,A, | !>!A,3 A,F,A, | G,2 G,2 G,2 | (G,E,) z4 | !>!F,3 z z2 | !>!E,3 z z2 | %165
 B,,2 B,,2 B,,2 | !>!C,3 z z2 | !>!C,6- | C,6 | z6 | z6 | z6 | z6 | z6 | z6 | z6 | z6 | z6 | z6 |] %179
V:4
 z2 | z6 | z6 | z6 | z6 | z6 | z6 | z6 | z6 | z6 | z6 | z6 | z6 | z6 | z6 | z6 | z6 || z6 | z6 | %19
 z6 | z6 | z6 | z6 | z6 | z6 | !>!.C,,6 | !>!.G,,,6 | !>!.C,,4 C,,2 | %28
 [G,,,G,,][G,,,G,,]- [G,,,G,,]4 | !>!.E,,4 !^!E,,2 |!<(! (E,,2 D,,2) C,,2!<)! | D,,6- | D,,6 | %33
!f! !>!.C,,6 | !>!.[G,,,G,,]6 | !>!.C,,4 C,,2 | [G,,,G,,][G,,,G,,]- [G,,,G,,]4 | %37
 !^!D,,2 !^!E,,2 !^!D,,2 | G,,,4 !>!=B,,,2 | !>!C,,6- | !fermata!C,,6 ||[K:C][M:2/4] z4 | %42
[M:3/4]!mp! E,,6- | E,,2 z4 | A,,6- | A,,2 z4 |!<(! !>!F,,6!<)! | !>!E,,6 || %48
 A,,A,,/A,,/ A,,A,, A,,A,, |!>(! A,,A,,/A,,/ A,,A,, A,,A,,!>)! |!mp! A,,A,,/A,,/ A,,A,, A,,A,, | %51
 A,,A,,/A,,/ A,,A,, C,,C,, | A,,A,,/A,,/ A,,A,, C,,C,, | A,,A,,/A,,/ A,,A,, A,,A,, | %54
 G,,G,,/G,,/ G,,G,, G,,G,, | E,,E,,/E,,/ E,,E,, E,,E,, | G,,G,,/G,,/ G,,G,, G,,G,, | %57
 C,,C,,/C,,/ C,,C,, D,,D,, | E,,E,,/E,,/ E,,E,, E,,E,, | A,,A,,/A,,/ A,,A,, G,,G,, | %60
!f! !>!E,,/!>!E,,/!>!E,, z G,, A,,2 | !>!E,,/!>!E,,/!>!E,, z4 |!mf! A,,A,,/A,,/ A,,A,, A,,A,, | %63
 G,,G,,/G,,/ G,,G,, G,,G,, | C,,C,,/C,,/ C,,D,, E,,E,, | F,,F,,/F,,/ F,,F,, F,,F,, | %66
 A,,A,,/A,,/ A,,A,, A,,A,, | D,,D,,/D,,/ D,,D,, D,,D,, | E,,E,,/E,,/ E,,E,, E,,E,, | %69
 A,,A,,/A,,/ A,,A,, C,,C,, |!>(! A,,6!>)! ||!mp! A,,6 | E,,6 | A,,6 | E,,6 | D,,6 | D,,6 | ^F,,6 | %78
!<(! E,,2 ^F,,2 ^G,,2!<)! |!f! !>!A,,2 z2 z !>!A,, | A,,>E, D,G,, A,,A,, | A,,2 z4 | %82
 z !^!A,, z !^!A,, z !^!A,, | !>!A,,>G,, A,,B,, C,A,, | !>!A,,>C, B,,G,, A,,!>!E,, | %85
 !>!A,,>G,, A,,B,, C,,D,, |[M:4/4] E,,3 E,, E,,4 ||[M:3/4]!mf! A,,A,,/A,,/ A,,A,, A,,A,, | %88
 G,,G,,/G,,/ G,,G,, G,,G,, | C,,C,,/C,,/ C,,C,, C,,C,, | G,,G,,/G,,/ G,,G,,!<(! G,,G,,!<)! | %91
[M:4/4] !>!.C,,2 !>!.D,,2 !>!.E,,2!>(! (E,,/D,,/)C,,/B,,,/!>)! | %92
 A,,,2!p! z2!<(! !tenuto!C,2 z2!<)! | !tenuto!B,,2 z2 !tenuto!^G,,2 z2 | %94
 !tenuto![F,,F,]2 z2 !tenuto![E,,E,]2 z2 | z4 z2!mf! .E,2 | z4 z2!f! .A,,2 |] %97
[M:6/8] A,,2 A,, A,,2 A,, | A,,2 A,, A,,A,,A,, | A,,2 A,, A,,2 A,, | A,,2 A,, A,,A,,A,, | %101
 A,,2 A,, A,,2 A,, | A,,2 A,, A,,A,,A,, |: A,,2 A,, A,,2 G,, | F,,2 F,, F,,2 F,, | %105
 E,,2 E,, E,,2 E,, | A,,2 A,, A,,2 A,, | F,,2 F,, F,,2 F,, | C,,2 C,, C,,2 C,, | %109
 G,,2 G,, E,,2 E,, | A,,2 A,, A,,2 A,, | A,,2 A,, A,,2 A,, | F,,2 F,, F,,2 F,, | %113
 D,,2 D,, D,,2 D,, | A,,2 A,, A,,2 A,, | F,,2 F,, F,,2 F,, | A,,2 A,, A,,2 A,, |1 %117
[M:12/8] E,,2 E,, E,,2 ^F,, E,,2 E,, E,,2 G,, :|2[M:6/8] E,,2 E,, E,,2 E,, || %119
[M:3/4] A,,2 A,,2 G,,2 | G,,2 G,,2 F,,2 ||[M:6/8] E,,2 E,, E,,2 E,, | E,,2 E,, E,,2 E,, | %123
 D,,2 D,, D,,2 D,, | D,,2 D,, D,,2 D,, | E,,2 E,, E,,2 E,, | E,,2 E,, E,,2!>(! E,,!>)! || %127
!p! A,,2 A,, A,,2 A,, | A,,2 A,, A,,A,,A,, | G,,2 G,, G,,2 G,, | C,2 C, C,C,C, | %131
 A,,2 A,, A,,2 A,, | A,,2 A,, A,,A,,A,, | E,,2 E,, E,,2 E,, | A,,2 A,, A,,2 A,, || %135
 A,,2 A,, A,,2 A,, | G,,2 G,, G,,2 G,, | C,2 C, C,2 C, | G,,2 G,, G,,2 G,, | C,,2 C,, C,,2 C,, | %140
 E,,2 E,, E,,2 E,, | A,,2 A,, A,,2 A,, | A,,2 A,, A,,A,,A,, | G,,2 G,, G,,G,,G,, | %144
 G,,2 G,, G,,G,,G,, | C,2 C, C,2 C, | G,,2 G,, G,,G,,G,, | D,,2 D,, D,,D,,D,, | %148
 E,,2 E,, E,,E,,E,, | E,,2 E,, E,,E,,E,, | A,,2 A,, A,,A,,A,, | A,,2 A,, A,,A,,A,, | %152
 D,,2 D,, D,,D,,D,, | C,2 C, C,C,C, | G,,2 G,, G,,G,,G,, | D,,2 D,, D,,D,,D,, | %156
 E,,2 E,, E,,E,,E,, | E,,2 E,, E,,E,,E,, | A,,2 A,, A,,A,,A,, | A,,2 A,, A,,A,,A,, | %160
 F,,2 F,, F,,F,,F,, | C,2 C, C,C,C, | G,,2 G,, G,,G,,G,, | D,,2 D,, D,,D,,D,, | %164
 E,,2 E,, E,,E,,E,, | E,,2 E,, E,,E,,E,, | !>!A,,3 z z2 | A,,6- | A,,6 | z6 | z6 | z6 | z6 | z6 | %174
 z6 | z6 | z6 | z6 | z6 |] %179

